<?xml version="1.0" encoding="UTF-8"?>
<map version="1.10" tiledversion="1.12.2" orientation="orthogonal" renderorder="right-down" width="100" height="50" tilewidth="18" tileheight="18" infinite="0" nextlayerid="4" nextobjectid="14">
 <tileset firstgid="1" source="tileset-tiles.tsx"/>
 <tileset firstgid="181" source="background.tsx"/>
 <tileset firstgid="221" source="t3.tsx"/>
 <layer id="3" name="background" width="100" height="50">
  <data encoding="csv">
182,183,184,182,183,184,182,183,184,182,183,184,182,183,184,182,183,184,182,183,184,182,183,184,182,183,184,182,183,184,182,183,184,182,183,184,182,183,184,182,183,184,182,183,184,182,183,184,182,183,184,182,183,184,182,183,184,182,183,184,182,183,184,182,183,184,182,183,184,182,183,184,182,183,184,182,183,184,182,183,184,182,183,184,182,183,184,182,183,184,182,183,184,182,183,184,182,183,184,182,
182,183,184,182,183,184,182,183,184,182,183,184,182,183,184,182,183,184,182,183,184,182,183,184,182,183,184,182,183,184,182,183,184,182,183,184,182,183,184,182,183,184,182,183,184,182,183,184,182,183,184,182,183,184,182,183,184,182,183,184,182,183,184,182,183,184,182,183,184,182,183,184,182,183,184,182,183,184,182,183,184,182,183,184,182,183,184,182,183,184,182,183,184,182,183,184,182,183,184,182,
182,183,184,182,183,184,182,183,184,182,183,184,182,183,184,182,183,184,182,183,184,182,183,184,182,183,184,182,183,184,182,183,184,182,183,184,182,183,184,182,183,184,182,183,184,182,183,184,182,183,184,182,183,184,182,183,184,182,183,184,182,183,184,182,183,184,182,183,184,182,183,184,182,183,184,182,183,184,182,183,184,182,183,184,182,183,184,182,183,184,182,183,184,182,183,184,182,183,184,182,
182,183,184,182,183,184,182,183,184,182,183,184,182,183,184,182,183,184,182,183,184,182,183,184,182,183,184,182,183,184,182,183,184,182,183,184,182,183,184,182,183,184,182,183,184,182,183,184,182,183,184,182,183,184,182,183,184,182,183,184,182,183,184,182,183,184,182,183,184,182,183,184,182,183,184,182,183,184,182,183,184,182,183,184,182,183,184,182,183,184,182,183,184,182,183,184,182,183,184,182,
182,183,184,182,183,184,182,183,184,182,183,184,182,183,184,182,183,184,182,183,184,182,183,184,182,183,184,182,183,184,182,183,184,182,183,184,182,183,184,182,183,184,182,183,184,182,183,184,182,183,184,182,183,184,182,183,184,182,183,184,182,183,184,182,183,184,182,183,184,182,183,184,182,183,184,182,183,184,182,183,184,182,183,184,182,183,184,182,183,184,182,183,184,182,183,184,182,183,184,182,
182,183,184,182,183,184,182,183,184,182,183,184,182,183,184,182,183,184,182,183,184,182,183,184,182,183,184,182,183,184,182,183,184,182,183,184,182,183,184,182,183,184,182,183,184,182,183,184,182,183,184,182,183,184,182,183,184,182,183,184,182,183,184,182,183,184,182,183,184,182,183,184,182,183,184,182,183,184,182,183,184,182,183,184,182,183,184,182,183,184,182,183,184,182,183,184,182,183,184,182,
182,183,184,182,183,184,182,183,184,182,183,184,182,183,184,182,183,184,182,183,184,182,183,184,182,183,184,182,183,184,182,183,184,182,183,184,182,183,184,182,183,184,182,183,184,182,183,184,182,183,184,182,183,184,182,183,184,182,183,184,182,183,184,182,183,184,182,183,184,182,183,184,182,183,184,182,183,184,182,183,184,182,183,184,182,183,184,182,183,184,182,183,184,182,183,184,182,183,184,182,
182,183,184,182,183,184,182,183,184,182,183,184,182,183,184,182,183,184,182,183,184,182,183,184,182,183,184,182,183,184,182,183,184,182,183,184,182,183,184,182,183,184,182,183,184,182,183,184,182,183,184,182,183,184,182,183,184,182,183,184,182,183,184,182,183,184,182,183,184,182,183,184,182,183,184,182,183,184,182,183,184,182,183,184,182,183,184,182,183,184,182,183,184,182,183,184,182,183,184,182,
182,183,184,182,183,184,182,183,184,182,183,184,182,183,184,182,183,184,182,183,184,182,183,184,182,183,184,182,183,184,182,183,184,182,183,184,182,183,184,182,183,184,182,183,184,182,183,184,182,183,184,182,183,184,182,183,184,182,183,184,182,183,184,182,183,184,182,183,184,182,183,184,182,183,184,182,183,184,182,183,184,182,183,184,182,183,184,182,183,184,182,183,184,182,183,184,182,183,184,182,
182,183,184,182,183,184,182,183,184,182,183,184,182,183,184,182,183,184,182,183,184,182,183,184,182,183,184,182,183,184,182,183,184,182,183,184,182,183,184,182,183,184,182,183,184,182,183,184,182,183,184,182,183,184,182,183,184,182,183,184,182,183,184,182,183,184,182,183,184,182,183,184,182,183,184,182,183,184,182,183,184,182,183,184,182,183,184,182,183,184,182,183,184,182,183,184,182,183,184,182,
182,183,184,182,183,184,182,183,184,182,183,184,182,183,184,182,183,184,182,183,184,182,183,184,182,183,184,182,183,184,182,183,184,182,183,184,182,183,184,182,183,184,182,183,184,182,183,184,182,183,184,182,183,184,182,183,184,182,183,184,182,183,184,182,183,184,182,183,184,182,183,184,182,183,184,182,183,184,182,183,184,182,183,184,182,183,184,182,183,184,182,183,184,182,183,184,182,183,184,182,
182,183,184,182,183,184,182,183,184,182,183,184,182,183,184,182,183,184,182,183,184,182,183,184,182,183,184,182,183,184,182,183,184,182,183,184,182,183,184,182,183,184,182,183,184,182,183,184,182,183,184,182,183,184,182,183,184,182,183,184,182,183,184,182,183,184,182,183,184,182,183,184,182,183,184,182,183,184,182,183,184,182,183,184,182,183,184,182,183,184,182,183,184,182,183,184,182,183,184,182,
182,183,184,182,183,184,182,183,184,182,183,184,182,183,184,182,183,184,182,183,184,182,183,184,182,183,184,182,183,184,182,183,184,182,183,184,182,183,184,182,183,184,182,183,184,182,183,184,182,183,184,182,183,184,182,183,184,182,183,184,182,183,184,182,183,184,182,183,184,182,183,184,182,183,184,182,183,184,182,183,184,182,183,184,182,183,184,182,183,184,182,183,184,182,183,184,182,183,184,182,
182,183,184,182,183,184,182,183,184,182,183,184,182,183,184,182,183,184,182,183,184,182,183,184,182,183,184,182,183,184,182,183,184,182,183,184,182,183,184,182,183,184,182,183,184,182,183,184,182,183,184,182,183,184,182,183,184,182,183,184,182,183,184,182,183,184,182,183,184,182,183,184,182,183,184,182,183,184,182,183,184,182,183,184,182,183,184,182,183,184,182,183,184,182,183,184,182,183,184,182,
182,183,184,182,183,184,182,183,184,182,183,184,182,183,184,182,183,184,182,183,184,182,183,184,182,183,184,182,183,184,182,183,184,182,183,184,182,183,184,182,183,184,182,183,184,182,183,184,182,183,184,182,183,184,182,183,184,182,183,184,182,183,184,182,183,184,182,183,184,182,183,184,182,183,184,182,183,184,182,183,184,182,183,184,182,183,184,182,183,184,182,183,184,182,183,184,182,183,184,182,
182,183,184,182,183,184,182,183,184,182,183,184,182,183,184,182,183,184,182,183,184,182,183,184,182,183,184,182,183,184,182,183,184,182,183,184,182,183,184,182,183,184,182,183,184,182,183,184,182,183,184,182,183,184,182,183,184,182,183,184,182,183,184,182,183,184,182,183,184,182,183,184,182,183,184,182,183,184,182,183,184,182,183,184,182,183,184,182,183,184,182,183,184,182,183,184,182,183,184,182,
182,183,184,182,183,184,182,183,184,182,183,184,182,183,184,182,183,184,182,183,184,182,183,184,182,183,184,182,183,184,182,183,184,182,183,184,182,183,184,182,183,184,182,183,184,182,183,184,182,183,184,182,183,184,182,183,184,182,183,184,182,183,184,182,183,184,182,183,184,182,183,184,182,183,184,182,183,184,182,183,184,182,183,184,182,183,184,182,183,184,182,183,184,182,183,184,182,183,184,182,
182,183,184,182,183,184,182,183,184,182,183,184,182,183,184,182,183,184,182,183,184,182,183,184,182,183,184,182,183,184,182,183,184,182,183,184,182,183,184,182,183,184,182,183,184,182,183,184,182,183,184,182,183,184,182,183,184,182,183,184,182,183,184,182,183,184,182,183,184,182,183,184,182,183,184,182,183,184,182,183,184,182,183,184,182,183,184,182,183,184,182,183,184,182,183,184,182,183,184,182,
182,183,184,182,183,184,182,183,184,182,183,184,182,183,184,182,183,184,182,183,184,182,183,184,182,183,184,182,183,184,182,183,184,182,183,184,182,183,184,182,183,184,182,183,184,182,183,184,182,183,184,182,183,184,182,183,184,182,183,184,182,183,184,182,183,184,182,183,184,182,183,184,182,183,184,182,183,184,182,183,184,182,183,184,182,183,184,182,183,184,182,183,184,182,183,184,182,183,184,182,
182,183,184,182,183,184,182,183,184,182,183,184,182,183,184,182,183,184,182,183,184,182,183,184,182,183,184,182,183,184,182,183,184,182,183,184,182,183,184,182,183,184,182,183,184,182,183,184,182,183,184,182,183,184,182,183,184,182,183,184,182,183,184,182,183,184,182,183,184,182,183,184,182,183,184,182,183,184,182,183,184,182,183,184,182,183,184,182,183,184,182,183,184,182,183,184,182,183,184,182,
182,183,184,182,183,184,182,183,184,182,183,184,182,183,184,182,183,184,182,183,184,182,183,184,182,183,184,182,183,184,182,183,184,182,183,184,182,183,184,182,183,184,182,183,184,182,183,184,182,183,184,182,183,184,182,183,184,182,183,184,182,183,184,182,183,184,182,183,184,182,183,184,182,183,184,182,183,184,182,183,184,182,183,184,182,183,184,182,183,184,182,183,184,182,183,184,182,183,184,182,
182,183,184,182,183,184,182,183,184,182,183,184,182,183,184,182,183,184,182,183,184,182,183,184,182,183,184,182,183,184,182,183,184,182,183,184,182,183,184,182,183,184,182,183,184,182,183,184,182,183,184,182,183,184,182,183,184,182,183,184,182,183,184,182,183,184,182,183,184,182,183,184,182,183,184,182,183,184,182,183,184,182,183,184,182,183,184,182,183,184,182,183,184,182,183,184,182,183,184,182,
182,183,184,182,183,184,182,183,184,182,183,184,182,183,184,182,183,184,182,183,184,182,183,184,182,183,184,182,183,184,182,183,184,182,183,184,182,183,184,182,183,184,182,183,184,182,183,184,182,183,184,182,183,184,182,183,184,182,183,184,182,183,184,182,183,184,182,183,184,182,183,184,182,183,184,182,183,184,182,183,184,182,183,184,182,183,184,182,183,184,182,183,184,182,183,184,182,183,184,182,
182,183,184,182,183,184,182,183,184,182,183,184,182,183,184,182,183,184,182,183,184,182,183,184,182,183,184,182,183,184,182,183,184,182,183,184,182,183,184,182,183,184,182,183,184,182,183,184,182,183,184,182,183,184,182,183,184,182,183,184,182,183,184,182,183,184,182,183,184,182,183,184,182,183,184,182,183,184,182,183,184,182,183,184,182,183,184,182,183,184,182,183,184,182,183,184,182,183,184,182,
192,193,194,192,193,194,192,193,194,192,193,194,192,193,194,192,193,194,192,193,194,192,193,194,192,193,194,192,193,194,192,193,194,192,193,194,192,193,194,192,193,194,192,193,194,192,193,194,192,193,194,192,193,194,192,193,194,192,193,194,192,193,194,192,193,194,192,193,194,192,193,194,192,193,194,192,193,194,192,193,194,192,193,194,192,193,194,192,193,194,192,193,194,192,193,194,192,193,194,192,
202,203,204,202,203,204,202,203,204,202,203,204,202,203,204,202,203,204,202,203,204,202,203,204,202,203,204,202,203,204,202,203,204,202,203,204,202,203,204,202,203,204,202,203,204,202,203,204,202,203,204,202,203,204,202,203,204,202,203,204,202,203,204,202,203,204,202,203,204,202,203,204,202,203,204,202,203,204,202,203,204,202,203,204,202,203,204,202,203,204,202,203,204,202,203,204,202,203,204,202,
212,213,214,212,213,214,212,213,214,212,213,214,212,213,214,212,213,214,212,213,214,212,213,214,212,213,214,212,213,214,212,213,214,212,213,214,212,213,214,212,213,214,212,213,214,212,213,214,212,213,214,212,213,214,212,213,214,212,213,214,212,213,214,212,213,214,212,213,214,212,213,214,212,213,214,212,213,214,212,213,214,212,213,214,212,213,214,212,213,214,212,213,214,212,213,214,212,213,214,212,
212,213,214,212,213,214,212,213,214,212,213,214,212,213,214,212,213,214,212,213,214,212,213,214,212,213,214,212,213,214,212,213,214,212,213,214,212,213,214,212,213,214,212,213,214,212,213,214,212,213,214,212,213,214,212,213,214,212,213,214,212,213,214,212,213,214,212,213,214,212,213,214,212,213,214,212,213,214,212,213,214,212,213,214,212,213,214,212,213,214,212,213,214,212,213,214,212,213,214,212,
212,213,214,212,213,214,212,213,214,212,213,214,212,213,214,212,213,214,212,213,214,212,213,214,212,213,214,212,213,214,212,213,214,212,213,214,212,213,214,212,213,214,212,213,214,212,213,214,212,213,214,212,213,214,212,213,214,212,213,214,212,213,214,212,213,214,212,213,214,212,213,214,212,213,214,212,213,214,212,213,214,212,213,214,212,213,214,212,213,214,212,213,214,212,213,214,212,213,214,212,
212,213,214,212,213,214,212,213,214,212,213,214,212,213,214,212,213,214,212,213,214,212,213,214,212,213,214,212,213,214,212,213,214,212,213,214,212,213,214,212,213,214,212,213,214,212,213,214,212,213,214,212,213,214,212,213,214,212,213,214,212,213,214,212,213,214,212,213,214,212,213,214,212,213,214,212,213,214,212,213,214,212,213,214,212,213,214,212,213,214,212,213,214,212,213,214,212,213,214,212,
212,213,214,212,213,214,212,213,214,212,213,214,212,213,214,212,213,214,212,213,214,212,213,214,212,213,214,212,213,214,212,213,214,212,213,214,212,213,214,212,213,214,212,213,214,212,213,214,212,213,214,212,213,214,212,213,214,212,213,214,212,213,214,212,213,214,212,213,214,212,213,214,212,213,214,212,213,214,212,213,214,212,213,214,212,213,214,212,213,214,212,213,214,212,213,214,212,213,214,212,
212,213,214,212,213,214,212,213,214,212,213,214,212,213,214,212,213,214,212,213,214,212,213,214,212,213,214,212,213,214,212,213,214,212,213,214,212,213,214,212,213,214,212,213,214,212,213,214,212,213,214,212,213,214,212,213,214,212,213,214,212,213,214,212,213,214,212,213,214,212,213,214,212,213,214,212,213,214,212,213,214,212,213,214,212,213,214,212,213,214,212,213,214,212,213,214,212,213,214,212,
212,213,214,212,213,214,212,213,214,212,213,214,212,213,214,212,213,214,212,213,214,212,213,214,212,213,214,212,213,214,212,213,214,212,213,214,212,213,214,212,213,214,212,213,214,212,213,214,212,213,214,212,213,214,212,213,214,212,213,214,212,213,214,212,213,214,212,213,214,212,213,214,212,213,214,212,213,214,212,213,214,212,213,214,212,213,214,212,213,214,212,213,214,212,213,214,212,213,214,212,
212,213,214,212,213,214,212,213,214,212,213,214,212,213,214,212,213,214,212,213,214,212,213,214,212,213,214,212,213,214,212,213,214,212,213,214,212,213,214,212,213,214,212,213,214,212,213,214,212,213,214,212,213,214,212,213,214,212,213,214,212,213,214,212,213,214,212,213,214,212,213,214,212,213,214,212,213,214,212,213,214,212,213,214,212,213,214,212,213,214,212,213,214,212,213,214,212,213,214,212,
212,213,214,212,213,214,212,213,214,212,213,214,212,213,214,212,213,214,212,213,214,212,213,214,212,213,214,212,213,214,212,213,214,212,213,214,212,213,214,212,213,214,212,213,214,212,213,214,212,213,214,212,213,214,212,213,214,212,213,214,212,213,214,212,213,214,212,213,214,212,213,214,212,213,214,212,213,214,212,213,214,212,213,214,212,213,214,212,213,214,212,213,214,212,213,214,212,213,214,212,
212,213,214,212,213,214,212,213,214,212,213,214,212,213,214,212,213,214,212,213,214,212,213,214,212,213,214,212,213,214,212,213,214,212,213,214,212,213,214,212,213,214,212,213,214,212,213,214,212,213,214,212,213,214,212,213,214,212,213,214,212,213,214,212,213,214,212,213,214,212,213,214,212,213,214,212,213,214,212,213,214,212,213,214,212,213,214,212,213,214,212,213,214,212,213,214,212,213,214,212,
212,213,214,212,213,214,212,213,214,212,213,214,212,213,214,212,213,214,212,213,214,212,213,214,212,213,214,212,213,214,212,213,214,212,213,214,212,213,214,212,213,214,212,213,214,212,213,214,212,213,214,212,213,214,212,213,214,212,213,214,212,213,214,212,213,214,212,213,214,212,213,214,212,213,214,212,213,214,212,213,214,212,213,214,212,213,214,212,213,214,212,213,214,212,213,214,212,213,214,212,
212,213,214,212,213,214,212,213,214,212,213,214,212,213,214,212,213,214,212,213,214,212,213,214,212,213,214,212,213,214,212,213,214,212,213,214,212,213,214,212,213,214,212,213,214,212,213,214,212,213,214,212,213,214,212,213,214,212,213,214,212,213,214,212,213,214,212,213,214,212,213,214,212,213,214,212,213,214,212,213,214,212,213,214,212,213,214,212,213,214,212,213,214,212,213,214,212,213,214,212,
212,213,214,212,213,214,212,213,214,212,213,214,212,213,214,212,213,214,212,213,214,212,213,214,212,213,214,212,213,214,212,213,214,212,213,214,212,213,214,212,213,214,212,213,214,212,213,214,212,213,214,212,213,214,212,213,214,212,213,214,212,213,214,212,213,214,212,213,214,212,213,214,212,213,214,212,213,214,212,213,214,212,213,214,212,213,214,212,213,214,212,213,214,212,213,214,212,213,214,212,
212,213,214,212,213,214,212,213,214,212,213,214,212,213,214,212,213,214,212,213,214,212,213,214,212,213,214,212,213,214,212,213,214,212,213,214,212,213,214,212,213,214,212,213,214,212,213,214,212,213,214,212,213,214,212,213,214,212,213,214,212,213,214,212,213,214,212,213,214,212,213,214,212,213,214,212,213,214,212,213,214,212,213,214,212,213,214,212,213,214,212,213,214,212,213,214,212,213,214,212,
212,213,214,212,213,214,212,213,214,212,213,214,212,213,214,212,213,214,212,213,214,212,213,214,212,213,214,212,213,214,212,213,214,212,213,214,212,213,214,212,213,214,212,213,214,212,213,214,212,213,214,212,213,214,212,213,214,212,213,214,212,213,214,212,213,214,212,213,214,212,213,214,212,213,214,212,213,214,212,213,214,212,213,214,212,213,214,212,213,214,212,213,214,212,213,214,212,213,214,212,
212,213,214,212,213,214,212,213,214,212,213,214,212,213,214,212,213,214,212,213,214,212,213,214,212,213,214,212,213,214,212,213,214,212,213,214,212,213,214,212,213,214,212,213,214,212,213,214,212,213,214,212,213,214,212,213,214,212,213,214,212,213,214,212,213,214,212,213,214,212,213,214,212,213,214,212,213,214,212,213,214,212,213,214,212,213,214,212,213,214,212,213,214,212,213,214,212,213,214,212,
212,213,214,212,213,214,212,213,214,212,213,214,212,213,214,212,213,214,212,213,214,212,213,214,212,213,214,212,213,214,212,213,214,212,213,214,212,213,214,212,213,214,212,213,214,212,213,214,212,213,214,212,213,214,212,213,214,212,213,214,212,213,214,212,213,214,212,213,214,212,213,214,212,213,214,212,213,214,212,213,214,212,213,214,212,213,214,212,213,214,212,213,214,212,213,214,212,213,214,212,
212,213,214,212,213,214,212,213,214,212,213,214,212,213,214,212,213,214,212,213,214,212,213,214,212,213,214,212,213,214,212,213,214,212,213,214,212,213,214,212,213,214,212,213,214,212,213,214,212,213,214,212,213,214,212,213,214,212,213,214,212,213,214,212,213,214,212,213,214,212,213,214,212,213,214,212,213,214,212,213,214,212,213,214,212,213,214,212,213,214,212,213,214,212,213,214,212,213,214,212,
212,213,214,212,213,214,212,213,214,212,213,214,212,213,214,212,213,214,212,213,214,212,213,214,212,213,214,212,213,214,212,213,214,212,213,214,212,213,214,212,213,214,212,213,214,212,213,214,212,213,214,212,213,214,212,213,214,212,213,214,212,213,214,212,213,214,212,213,214,212,213,214,212,213,214,212,213,214,212,213,214,212,213,214,212,213,214,212,213,214,212,213,214,212,213,214,212,213,214,212,
212,213,214,212,213,214,212,213,214,212,213,214,212,213,214,212,213,214,212,213,214,212,213,214,212,213,214,212,213,214,212,213,214,212,213,214,212,213,214,212,213,214,212,213,214,212,213,214,212,213,214,212,213,214,212,213,214,212,213,214,212,213,214,212,213,214,212,213,214,212,213,214,212,213,214,212,213,214,212,213,214,212,213,214,212,213,214,212,213,214,212,213,214,212,213,214,212,213,214,212,
212,213,214,212,213,214,212,213,214,212,213,214,212,213,214,212,213,214,212,213,214,212,213,214,212,213,214,212,213,214,212,213,214,212,213,214,212,213,214,212,213,214,212,213,214,212,213,214,212,213,214,212,213,214,212,213,214,212,213,214,212,213,214,212,213,214,212,213,214,212,213,214,212,213,214,212,213,214,212,213,214,212,213,214,212,213,214,212,213,214,212,213,214,212,213,214,212,213,214,212,
212,213,214,212,213,214,212,213,214,212,213,214,212,213,214,212,213,214,212,213,214,212,213,214,212,213,214,212,213,214,212,213,214,212,213,214,212,213,214,212,213,214,212,213,214,212,213,214,212,213,214,212,213,214,212,213,214,212,213,214,212,213,214,212,213,214,212,213,214,212,213,214,212,213,214,212,213,214,212,213,214,212,213,214,212,213,214,212,213,214,212,213,214,212,213,214,212,213,214,212,
212,213,214,212,213,214,212,213,214,212,213,214,212,213,214,212,213,214,212,213,214,212,213,214,212,213,214,212,213,214,212,213,214,212,213,214,212,213,214,212,213,214,212,213,214,212,213,214,212,213,214,212,213,214,212,213,214,212,213,214,212,213,214,212,213,214,212,213,214,212,213,214,212,213,214,212,213,214,212,213,214,212,213,214,212,213,214,212,213,214,212,213,214,212,213,214,212,213,214,212,
212,213,214,212,213,214,212,213,214,212,213,214,212,213,214,212,213,214,212,213,214,212,213,214,212,213,214,212,213,214,212,213,214,212,213,214,212,213,214,212,213,214,212,213,214,212,213,214,212,213,214,212,213,214,212,213,214,212,213,214,212,213,214,212,213,214,212,213,214,212,213,214,212,213,214,212,213,214,212,213,214,212,213,214,212,213,214,212,213,214,212,213,214,212,213,214,212,213,214,212
</data>
 </layer>
 <layer id="1" name="Ground" width="100" height="50">
  <data encoding="csv">
0,0,0,0,0,0,0,0,0,0,0,0,0,0,0,0,0,0,0,0,0,0,0,0,0,0,0,0,0,0,0,0,0,0,0,0,0,0,0,0,0,0,0,0,0,0,0,0,0,0,0,0,0,0,0,0,0,0,0,0,0,0,0,0,0,0,0,0,0,0,0,0,0,0,0,0,0,0,0,0,0,0,0,0,0,0,0,0,0,0,0,0,0,0,0,0,0,0,0,0,
0,0,0,0,0,0,0,0,0,0,0,0,0,0,0,0,0,0,0,0,0,0,0,0,0,0,0,0,0,0,0,0,0,0,0,0,0,0,0,0,0,0,0,0,0,0,0,0,0,0,0,0,0,0,0,0,0,0,0,0,0,0,0,0,0,0,0,0,0,0,0,0,0,0,0,0,0,0,0,0,0,0,0,0,0,0,0,0,0,0,0,0,0,0,0,0,0,0,0,0,
0,0,0,0,0,0,0,0,0,0,0,0,0,0,0,0,0,0,0,0,0,0,0,0,0,0,0,0,0,0,0,0,0,0,0,0,0,0,0,0,0,0,0,0,0,0,0,0,0,0,0,0,0,0,0,0,0,0,0,0,0,0,0,0,0,0,0,0,0,0,0,0,0,0,0,0,0,0,0,0,0,0,0,0,0,0,0,0,0,0,0,0,0,0,0,0,0,0,0,0,
0,0,0,0,0,0,0,0,0,0,0,0,0,0,0,0,0,0,0,0,0,0,0,0,0,0,0,0,0,0,0,0,0,0,0,0,0,0,0,0,0,0,0,0,0,0,0,0,0,0,0,0,0,0,0,0,0,0,0,0,0,0,0,0,0,0,0,0,0,0,0,0,0,0,0,0,0,0,0,0,0,0,0,0,0,0,0,0,0,0,0,0,0,0,0,0,0,0,0,0,
0,0,0,0,0,0,0,0,0,0,0,0,0,0,0,0,0,0,0,0,0,0,0,0,0,0,0,0,0,0,0,0,0,0,0,0,0,0,0,0,0,0,0,0,0,0,0,0,0,0,0,0,0,0,0,0,0,0,0,0,0,0,0,0,0,0,0,0,0,0,0,0,0,0,0,0,0,0,0,0,0,0,0,0,0,0,0,0,0,0,0,0,0,0,0,0,0,0,0,0,
0,0,0,0,0,0,0,0,0,0,0,0,0,0,0,0,0,0,0,0,0,0,0,0,0,0,0,0,0,0,0,0,0,0,0,0,0,0,0,0,0,0,0,0,0,0,0,0,0,0,0,0,0,0,0,0,0,0,0,0,0,0,0,0,0,0,0,0,0,0,0,0,0,0,0,0,0,0,0,0,0,0,0,0,0,0,0,0,0,0,0,0,0,0,0,0,0,0,0,0,
0,0,0,0,0,0,0,0,0,0,0,0,0,0,0,0,0,0,0,0,0,0,0,0,0,0,0,0,0,0,0,0,0,0,0,0,0,0,0,0,0,0,0,0,0,0,0,0,0,0,0,0,0,0,0,0,0,0,0,0,0,0,0,0,0,0,0,0,0,0,0,0,0,0,0,0,0,0,0,0,0,0,0,0,0,0,0,0,0,0,0,0,0,0,0,0,0,0,0,0,
0,0,0,0,0,0,0,0,0,0,0,0,0,0,0,0,0,0,0,0,0,0,0,0,0,0,0,0,0,0,0,0,0,0,0,0,0,0,0,0,0,0,0,0,0,0,0,0,0,0,0,0,0,0,0,0,0,0,0,0,0,0,0,0,0,0,0,0,0,0,0,0,0,0,0,0,0,0,0,0,0,0,0,0,0,0,0,0,0,0,0,0,0,0,0,0,0,0,0,0,
0,0,0,0,0,0,0,0,0,0,0,0,0,0,0,0,0,0,297,330,330,330,330,330,330,330,330,330,330,330,330,330,330,330,330,330,330,330,330,330,330,330,330,330,330,330,330,330,330,330,330,330,330,330,330,330,330,330,330,330,330,330,330,330,330,330,330,330,330,330,330,330,330,330,330,330,330,330,330,330,330,330,298,0,0,0,0,0,0,0,0,0,0,0,0,0,0,0,0,0,
0,0,0,0,0,0,0,0,0,0,0,0,0,0,0,0,0,0,296,0,0,0,0,0,0,0,0,0,0,0,0,0,0,0,0,0,0,0,0,0,0,0,0,0,0,0,0,0,0,0,0,0,0,0,0,0,0,0,0,0,0,0,0,0,0,0,0,0,0,0,0,0,0,0,0,0,0,0,0,0,0,0,296,0,0,0,0,0,0,0,0,0,0,0,0,0,0,0,0,0,
0,0,0,0,0,0,0,0,0,0,0,0,0,0,0,0,0,0,296,0,0,0,0,0,0,0,0,0,0,0,0,0,0,0,0,0,0,0,0,0,0,0,0,0,0,0,0,0,0,0,0,0,0,0,0,0,0,0,0,0,0,0,0,0,0,0,0,0,0,0,0,0,0,0,0,0,0,0,0,0,0,0,296,0,0,0,0,0,0,0,0,0,0,0,0,0,0,0,0,0,
0,0,0,0,0,0,0,0,0,0,0,0,0,0,0,0,0,0,296,0,0,0,0,0,0,0,0,0,0,0,0,0,0,0,0,0,0,0,0,0,0,0,0,0,0,0,0,0,0,0,0,0,0,0,0,0,0,0,0,0,0,0,0,0,0,0,0,0,0,0,0,0,0,0,0,0,0,0,0,0,0,0,296,0,0,0,0,0,0,0,0,0,0,0,0,0,0,0,0,0,
0,0,0,0,0,0,0,0,0,0,0,0,0,0,0,0,0,0,296,0,0,0,0,0,0,0,0,0,0,0,0,0,0,0,0,0,0,0,0,0,0,0,0,0,0,0,0,0,0,0,0,0,0,0,0,0,0,0,0,0,0,0,0,0,0,0,0,0,0,0,0,0,0,0,0,0,0,0,0,0,0,0,296,0,0,0,0,0,0,0,0,0,0,0,0,0,0,0,0,0,
0,0,0,0,0,0,0,0,0,0,0,0,0,0,0,0,0,0,296,0,0,0,0,0,0,0,0,0,0,0,0,0,0,0,0,0,0,0,0,0,0,0,0,0,0,0,0,0,0,0,0,0,0,0,0,0,0,0,0,0,0,0,0,0,0,0,0,0,0,0,49,50,50,50,50,50,50,50,50,51,0,0,296,0,0,0,0,0,0,0,0,0,0,0,0,0,0,0,0,0,
0,0,0,0,0,0,0,0,0,0,0,0,0,0,0,0,0,0,296,0,0,0,0,0,0,0,0,0,0,0,0,0,0,0,0,0,0,0,0,0,0,0,0,0,0,0,0,0,0,0,0,0,0,0,0,0,0,0,0,0,0,0,0,0,0,0,0,0,0,0,0,0,0,0,0,0,0,0,0,0,0,0,296,0,0,0,0,0,0,0,0,0,0,0,0,0,0,0,0,0,
0,0,0,0,0,0,0,0,0,0,0,0,0,0,0,0,0,0,296,0,0,0,0,0,0,0,0,0,0,0,0,0,0,0,0,0,0,0,0,0,0,0,0,0,0,0,0,0,0,0,0,0,0,0,0,0,0,0,0,0,0,0,0,0,0,0,0,0,0,0,0,0,0,0,0,0,0,0,0,0,0,0,296,0,0,0,0,0,0,0,0,0,0,0,0,0,0,0,0,0,
0,0,0,0,0,0,0,0,0,0,0,0,0,0,0,0,0,0,296,0,0,0,0,0,0,0,0,0,0,0,0,0,0,0,0,0,0,0,0,0,0,0,0,0,0,0,0,0,0,0,0,0,0,0,0,49,50,50,50,50,50,50,51,0,0,0,0,0,0,0,0,0,0,0,0,0,0,0,0,0,0,0,296,0,0,0,0,0,0,0,0,0,0,0,0,0,0,0,0,0,
0,0,0,0,0,0,0,0,0,0,0,0,0,0,0,0,0,0,296,0,0,0,0,0,0,0,0,0,0,0,0,0,0,0,0,0,0,0,0,0,0,0,0,0,0,0,0,0,0,0,0,0,0,0,0,0,0,0,0,0,0,0,0,0,0,0,0,0,0,0,0,0,0,0,0,0,0,0,0,0,0,0,296,0,0,0,0,0,0,0,0,0,0,0,0,0,0,0,0,0,
0,0,0,0,0,0,0,0,0,0,0,0,0,0,0,0,0,0,296,0,0,0,0,0,0,0,0,0,0,0,0,0,0,0,0,0,0,0,0,0,0,0,0,0,0,0,0,0,0,0,0,0,0,0,0,0,0,0,0,0,0,0,0,0,0,0,0,0,0,0,0,0,0,0,0,0,0,0,0,0,0,0,296,0,0,0,0,0,0,0,0,0,0,0,0,0,0,0,0,0,
0,0,0,0,0,0,0,0,0,0,0,0,0,0,0,0,0,0,296,0,0,0,0,0,0,0,0,0,0,0,0,0,0,0,0,0,0,0,0,0,0,0,0,0,0,0,0,0,0,0,0,0,0,0,0,0,0,0,0,0,0,0,0,0,0,0,0,0,49,50,50,50,50,50,50,50,51,0,0,0,0,0,296,0,0,0,0,0,0,0,0,0,0,0,0,0,0,0,0,0,
0,0,0,0,0,0,0,0,0,0,0,0,0,0,0,0,0,0,296,0,0,0,0,0,0,0,0,0,0,0,0,0,0,0,0,0,0,0,0,0,0,0,0,0,0,0,0,0,0,0,0,0,0,0,0,0,0,0,0,0,0,0,0,0,0,0,0,0,0,0,0,0,0,0,0,0,0,0,0,0,0,0,296,0,0,0,0,0,0,0,0,0,0,0,0,0,0,0,0,0,
0,0,0,0,0,0,0,0,0,0,0,0,0,0,0,0,0,0,296,0,0,0,0,0,0,0,0,0,0,0,0,0,0,0,0,0,0,0,0,0,0,0,0,0,0,0,0,0,0,0,0,0,0,0,0,0,0,0,0,0,0,0,0,0,0,0,0,0,0,0,0,0,0,0,0,0,0,0,0,0,0,0,296,0,0,0,0,0,0,0,0,0,0,0,0,0,0,0,0,0,
0,0,0,0,0,0,0,0,0,0,0,0,0,0,0,0,0,0,296,0,0,0,0,0,0,0,0,0,0,0,0,0,0,0,0,0,0,0,0,0,0,0,0,0,0,0,0,0,0,0,49,50,50,50,50,50,50,51,0,0,0,0,0,0,0,0,0,0,0,0,0,0,0,0,0,0,0,0,0,0,0,0,296,0,0,0,0,0,0,0,0,0,0,0,0,0,0,0,0,0,
0,0,0,0,0,0,0,0,0,0,0,0,0,0,0,0,0,0,296,0,0,0,0,0,0,0,0,0,0,0,0,0,0,0,0,0,0,0,0,0,0,0,0,0,0,0,0,0,0,0,0,0,0,0,0,0,0,0,0,0,0,0,0,0,0,0,0,0,0,0,0,0,0,0,0,0,0,0,0,0,0,0,296,0,0,0,0,0,0,0,0,0,0,0,0,0,0,0,0,0,
0,0,0,0,0,0,0,0,0,0,0,0,0,0,0,0,0,0,296,0,0,0,0,0,0,0,0,0,0,0,0,0,0,0,0,0,0,0,0,0,0,0,0,0,0,0,0,0,0,0,0,0,0,0,0,0,0,0,0,0,0,0,0,0,0,0,0,0,0,0,0,0,0,0,0,0,0,0,0,0,0,0,296,0,0,0,0,0,0,0,0,0,0,0,0,0,0,0,0,0,
0,0,0,0,0,0,0,0,0,0,0,0,0,0,0,0,0,0,296,0,0,0,0,0,0,0,0,0,0,0,0,0,0,0,0,0,0,0,0,0,0,0,0,0,0,0,0,0,0,0,0,0,0,0,0,0,0,0,0,0,0,0,49,50,50,50,50,50,50,50,51,0,0,0,0,0,0,0,0,0,0,0,296,0,0,0,0,0,0,0,0,0,0,0,0,0,0,0,0,0,
0,0,0,0,0,0,0,0,0,0,0,0,0,0,0,0,0,0,296,0,0,0,0,0,0,0,0,0,0,0,0,0,0,0,0,0,0,0,0,0,0,0,0,0,0,0,0,0,0,0,0,0,0,0,0,0,0,0,0,0,0,0,0,0,0,0,0,0,0,0,0,0,0,0,0,0,0,0,0,0,0,0,296,0,0,0,0,0,0,0,0,0,0,0,0,0,0,0,0,0,
0,0,0,0,0,0,0,0,0,0,0,0,0,0,0,0,0,0,296,0,0,0,0,0,0,0,0,0,0,0,0,0,0,0,0,0,0,0,0,0,0,0,0,0,0,0,0,0,0,0,0,0,0,0,0,0,0,0,0,0,0,0,0,0,0,0,0,0,0,0,0,0,0,0,0,0,0,0,0,0,0,0,296,0,0,0,0,0,0,0,0,0,0,0,0,0,0,0,0,0,
0,0,0,0,0,0,0,0,0,0,0,0,0,0,0,0,0,0,296,0,0,0,0,0,0,0,0,0,0,0,0,0,0,0,0,0,0,0,0,0,0,0,0,0,0,0,49,50,50,50,50,50,50,51,0,0,0,0,0,0,0,0,0,0,0,0,0,0,0,0,0,0,0,0,0,0,0,0,0,0,0,0,296,0,0,0,0,0,0,0,0,0,0,0,0,0,0,0,0,0,
0,0,0,0,0,0,0,0,0,0,0,0,0,0,0,0,0,0,296,0,0,0,0,0,0,0,0,0,0,0,0,0,0,0,0,0,0,0,0,0,0,0,0,0,0,0,0,0,0,0,0,0,0,0,0,0,0,0,0,0,0,0,0,0,0,0,0,0,0,0,0,0,0,0,0,0,0,0,0,0,0,0,296,0,0,0,0,0,0,0,0,0,0,0,0,0,0,0,0,0,
0,0,0,0,0,0,0,0,0,0,0,0,0,0,0,0,0,0,296,0,0,0,0,0,0,0,0,0,0,0,0,0,0,0,0,0,0,0,0,0,0,0,0,0,0,0,0,0,0,0,0,0,0,0,0,0,0,0,0,0,0,0,0,0,0,0,0,0,0,0,0,0,0,0,0,0,0,0,0,0,0,0,296,0,0,0,0,0,0,0,0,0,0,0,0,0,0,0,0,0,
0,0,0,0,0,0,0,0,0,0,0,0,0,0,0,0,0,0,296,0,0,0,0,0,0,0,0,0,0,0,0,0,0,0,0,0,0,0,0,0,0,0,0,0,0,0,0,0,0,0,0,0,0,0,0,0,0,0,0,0,49,50,50,50,50,50,50,50,51,0,0,0,0,0,0,0,0,0,0,0,0,0,296,0,0,0,0,0,0,0,0,0,0,0,0,0,0,0,0,0,
0,0,0,0,0,0,0,0,0,0,0,0,0,0,0,0,0,0,296,0,0,0,0,0,0,0,0,0,0,0,0,0,0,0,0,0,0,0,0,0,0,0,0,0,0,0,0,0,0,0,0,0,0,0,0,0,0,0,0,0,0,0,0,0,0,0,0,0,0,0,0,0,0,0,0,0,0,0,0,0,0,0,296,0,0,0,0,0,0,0,0,0,0,0,0,0,0,0,0,0,
0,0,0,0,0,0,0,0,0,0,0,0,0,0,0,0,0,0,296,0,0,0,0,0,0,0,0,0,0,0,0,0,0,0,0,0,0,0,0,0,0,0,0,0,0,0,0,0,0,0,0,0,0,0,0,0,0,0,0,0,0,0,0,0,0,0,0,0,0,0,0,0,0,0,0,0,0,0,0,0,0,0,296,0,0,0,0,0,0,0,0,0,0,0,0,0,0,0,0,0,
0,0,0,0,0,0,0,0,0,0,0,0,0,0,0,0,0,0,296,0,0,0,0,0,0,0,0,0,0,0,0,0,0,0,0,0,0,0,0,0,0,0,0,0,49,50,50,50,50,50,50,51,0,0,0,0,0,0,0,0,0,0,0,0,0,0,0,0,0,0,0,0,0,0,0,0,0,0,0,0,0,0,296,0,0,0,0,0,0,0,0,0,0,0,0,0,0,0,0,0,
0,0,0,0,0,0,0,0,0,0,0,0,0,0,0,0,0,0,296,0,0,0,0,0,0,0,0,0,0,0,0,0,0,0,0,0,0,0,0,0,0,0,0,0,0,0,0,0,0,0,0,0,0,0,0,0,0,0,0,0,0,0,0,0,0,0,0,0,0,0,0,0,0,0,0,0,0,0,0,0,0,0,296,0,0,0,0,0,0,0,0,0,0,0,0,0,0,0,0,0,
0,0,0,0,0,0,0,0,0,0,0,0,0,0,0,0,0,0,296,0,0,0,0,0,0,0,0,0,0,0,0,0,0,0,0,0,0,0,0,0,0,0,0,0,0,0,0,0,0,0,0,0,0,0,0,0,0,0,0,0,0,0,0,0,0,0,0,0,0,0,0,0,0,0,0,0,0,0,0,0,0,0,296,0,0,0,0,0,0,0,0,0,0,0,0,0,0,0,0,0,
0,0,0,0,0,0,0,0,0,0,0,0,0,0,0,0,0,0,296,0,0,0,0,0,0,0,0,0,0,0,0,0,0,0,0,0,0,0,0,0,0,0,0,0,0,0,0,0,0,0,0,0,0,0,0,0,0,0,49,50,50,50,50,50,50,50,50,51,0,0,0,0,0,0,0,0,0,0,0,0,0,0,296,0,0,0,0,0,0,0,0,0,0,0,0,0,0,0,0,0,
0,0,0,0,0,0,0,0,0,0,0,0,0,0,0,0,0,0,296,0,0,0,0,0,0,0,0,0,0,0,0,0,0,0,0,0,0,0,0,0,0,0,0,0,0,0,0,0,0,0,0,0,0,0,0,0,0,0,0,0,0,0,0,0,0,0,0,0,0,0,0,0,0,0,0,0,0,0,0,0,0,0,296,0,0,0,0,0,0,0,0,0,0,0,0,0,0,0,0,0,
0,0,0,0,0,0,0,0,0,0,0,0,0,0,0,0,0,0,296,0,0,0,0,0,0,0,0,0,0,0,0,0,0,0,0,0,0,0,0,0,0,0,0,0,0,0,0,0,0,0,0,0,0,0,0,0,0,0,0,0,0,0,0,0,0,0,0,0,0,0,0,0,0,0,0,0,0,0,0,0,0,0,296,0,0,0,0,0,0,0,0,0,0,0,0,0,0,0,0,0,
0,0,0,0,0,0,0,0,0,0,0,0,0,0,0,0,0,0,296,0,0,0,0,0,0,0,0,0,0,0,0,0,0,0,0,0,0,0,0,0,49,50,50,50,50,50,50,50,50,51,0,0,0,0,0,0,0,0,0,0,0,0,0,0,0,0,0,0,0,0,0,0,0,0,0,0,0,0,0,0,0,0,296,0,0,0,0,0,0,0,0,0,0,0,0,0,0,0,0,0,
0,0,0,0,0,0,0,0,0,0,0,0,0,0,0,0,0,0,296,0,0,0,0,0,0,0,0,0,0,0,0,0,0,0,0,0,0,0,0,0,0,0,0,0,0,0,0,0,0,0,0,0,0,0,0,0,0,0,0,0,0,0,0,0,0,0,0,0,0,0,0,0,0,0,0,0,0,0,0,0,0,0,296,0,0,0,0,0,0,0,0,0,0,0,0,0,0,0,0,0,
0,0,0,0,0,0,0,0,0,0,0,0,0,0,0,0,0,0,328,162,0,0,0,0,0,0,0,0,0,0,0,0,0,0,0,0,0,0,0,0,0,0,0,0,0,0,0,0,0,0,0,0,0,0,0,0,0,0,0,0,0,0,0,0,0,0,0,0,0,0,0,0,0,0,0,0,0,0,0,0,0,0,296,0,0,0,0,0,0,0,0,0,0,0,0,0,0,0,0,0,
0,0,0,0,0,0,0,0,0,0,0,0,0,0,0,0,0,0,2,3,3,3,3,3,3,3,3,3,3,3,3,3,3,3,3,3,3,3,3,3,3,3,3,3,3,3,3,3,3,3,3,3,3,3,3,3,3,3,3,3,3,3,3,3,3,3,3,3,3,3,3,3,3,3,3,3,3,3,3,3,3,3,4,0,0,0,0,0,0,0,0,0,0,0,0,0,0,0,0,0,
0,0,0,0,0,0,0,0,0,0,0,0,0,0,0,0,0,0,328,0,0,0,0,0,0,0,0,0,0,0,0,0,0,0,0,0,0,0,0,0,0,0,0,0,0,0,0,0,0,0,0,0,0,0,0,0,0,0,0,0,0,0,0,0,0,0,0,0,0,0,0,0,0,0,0,0,0,0,0,0,0,0,0,0,0,0,0,0,0,0,0,0,0,0,0,0,0,0,0,0,
0,0,0,0,0,0,0,0,0,0,0,0,0,0,0,0,0,0,0,0,0,0,0,0,0,0,0,0,0,0,0,0,0,0,0,0,0,0,0,0,0,0,0,0,0,0,0,0,0,0,0,0,0,0,0,0,0,0,0,0,0,0,0,0,0,0,0,0,0,0,0,0,0,0,0,0,0,0,0,0,0,0,0,0,0,0,0,0,0,0,0,0,0,0,0,0,0,0,0,0,
0,0,0,0,0,0,0,0,0,0,0,0,0,0,0,0,0,0,0,0,0,0,0,0,0,0,0,0,0,0,0,0,0,0,0,0,0,0,0,0,0,0,0,0,0,0,0,0,0,0,0,0,0,0,0,0,0,0,0,0,0,0,0,0,0,0,0,0,0,0,0,0,0,0,0,0,0,0,0,0,0,0,0,0,0,0,0,0,0,0,0,0,0,0,0,0,0,0,0,0,
0,0,0,0,0,0,0,0,0,0,0,0,0,0,0,0,0,0,0,0,0,0,0,0,0,0,0,0,0,0,0,0,0,0,0,0,0,0,0,0,0,0,0,0,0,0,0,0,0,0,0,0,0,0,0,0,0,0,0,0,0,0,0,0,0,0,0,0,0,0,0,0,0,0,0,0,0,0,0,0,0,0,0,0,0,0,0,0,0,0,0,0,0,0,0,0,0,0,0,0,
0,0,0,0,0,0,0,0,0,0,0,0,0,0,0,0,0,0,0,0,0,0,0,0,0,0,0,0,0,0,0,0,0,0,0,0,0,0,0,0,0,0,0,0,0,0,0,0,0,0,0,0,0,0,0,0,0,0,0,0,0,0,0,0,0,0,0,0,0,0,0,0,0,0,0,0,0,0,0,0,0,0,0,0,0,0,0,0,0,0,0,0,0,0,0,0,0,0,0,0,
0,0,0,0,0,0,0,0,0,0,0,0,0,0,0,0,0,0,0,0,0,0,0,0,0,0,0,0,0,0,0,0,0,0,0,0,0,0,0,0,0,0,0,0,0,0,0,0,0,0,0,0,0,0,0,0,0,0,0,0,0,0,0,0,0,0,0,0,0,0,0,0,0,0,0,0,0,0,0,0,0,0,0,0,0,0,0,0,0,0,0,0,0,0,0,0,0,0,0,0
</data>
 </layer>
 <objectgroup id="2" name="Spawnpoints">
  <object id="1" type="Player" x="1350" y="220" width="10" height="10"/>
  <object id="2" type="ExitDoor" x="1422" y="162" width="10" height="10"/>
  <object id="3" name="lever1" type="Lever" x="1296" y="332" width="10" height="10"/>
  <object id="4" name="gatelever1" type="Gate" x="1224" y="342" width="162" height="54"/>
  <object id="5" name="lever2" type="Lever" x="900" y="494" width="10" height="10"/>
  <object id="6" name="gatelever2" type="Gate" x="828" y="504" width="144" height="54"/>
  <object id="7" name="lever3" type="Lever" x="864" y="602" width="10" height="10"/>
  <object id="8" name="gatelever3" type="Gate" x="792" y="612" width="144" height="54"/>
  <object id="9" type="Fairy" x="972" y="382" width="20" height="20">
   <properties>
    <property name="color" value="blue"/>
   </properties>
  </object>
  <object id="10" name="fairy1" type="Fountain" x="1188" y="437" width="14" height="13.3333">
   <properties>
    <property name="color" value="blue"/>
   </properties>
  </object>
  <object id="11" name="gatefairy1" type="Gate" x="1116" y="450" width="162" height="54"/>
  <object id="12" name="fairy2" type="Fountain" x="1152" y="544" width="12" height="14.6667">
   <properties>
    <property name="color" value="blue"/>
   </properties>
  </object>
  <object id="13" name="gatefairy2" type="Gate" x="1080" y="558" width="162" height="54"/>
 </objectgroup>
</map>
